X:840
T:Atholl Highlanders
M:6/8
L:1/8
R:March
K:D maj
|:c<d|e3 e>cA|e>cA B>cd|e3 e>cA|B>cd c>BA|
e3 e>cA|e>cA B>cd|c>ae f>ed|c>dB A2:|
|:e|A>ce A>ce|B>df B>df|A>ce A>ce|B>cd c>BA|
A>ce A>ce|B>df B>df|c>ae f>ed|c>dB A2:|
|:e|a2e e>dc|a2e e>dc|a2e e>dc|B>cd c2e|
|1a2e e>dc|a2e e2d|c>ae f>ed|c>df A2:|
|2a2e a2e|f2f e2d|c>ae f>ed|c>df A2|
|:B|c>Ac c>Ac|d>Bd d>Bd|c>Ac c>Ac|B>GB B>cd|
|c>Ac c>Ac|d>Bd d>Bd|c>ae f>ed|c>dB
A2:|


